icons/op-new-planning-element-24.svg

<svg xmlns="http://www.w3.org/2000/svg" width="24" height="24" viewBox="0 0 24 24"><path d="M6 4h5.75v4H6V4ZM4 4h1v16H4V4Zm2 6h14v4H6v-4Zm0 6h10.188v4H6v-4Z"/></svg>

<svg width="24" height="24" viewBox="0 0 24 24" fill="none" xmlns="http://www.w3.org/2000/svg">
<path d="M6 4H11.75V8H6V4ZM4 4H5V20H4V4ZM6 10H20V14H6V10ZM6 16H16.1875V20H6V16Z" fill="black"/>
</svg>
